packages/kaspersky-hexa-ui-icons/src/iconsSVGs/16/Block.svg

<svg width="16" height="16" viewBox="0 0 16 16" fill="none" xmlns="http://www.w3.org/2000/svg">
<path fill-rule="evenodd" clip-rule="evenodd" d="M1 8C1 11.866 4.13401 15 8 15C11.866 15 15 11.866 15 8C15 4.13401 11.866 1 8 1C4.13401 1 1 4.13401 1 8ZM4.45525 12.464C5.42833 13.2377 6.66018 13.7 8 13.7C11.148 13.7 13.7 11.148 13.7 8C13.7 6.66018 13.2377 5.42833 12.464 4.45525L4.45525 12.464ZM3.53601 11.5448L11.5448 3.53601C10.5717 2.76227 9.33982 2.3 8 2.3C4.85198 2.3 2.3 4.85198 2.3 8C2.3 9.33982 2.76227 10.5717 3.53601 11.5448Z" fill="black"/>
</svg>

<svg xmlns="http://www.w3.org/2000/svg" width="16" height="16" fill="none" viewBox="0 0 16 16"><path fill="#000" fill-rule="evenodd" d="M1 8c0 3.866 3.134 7 7 7s7-3.134 7-7-3.134-7-7-7-7 3.134-7 7m3.4553 4.464A5.676 5.676 0 0 0 8 13.7c3.148 0 5.7-2.552 5.7-5.7a5.676 5.676 0 0 0-1.236-3.5447zm-.9193-.9192 8.0088-8.0088A5.676 5.676 0 0 0 8 2.3C4.852 2.3 2.3 4.852 2.3 8a5.676 5.676 0 0 0 1.236 3.5448"/></svg>
